X:329
T:Missing Link
M:C|
C:© Paul Gitlitz, 2011
K:C
"C"[e4e4] c4|"Dm"dcAG "F"F4|"F"FGAc d2 e2|"G"g2d2"C"e4|!
"C"e2g2c2e2|"Dm"dcAG "F"F4|"F"FGAc "G"d2 g2|"C"e2c6:|!
|:"C"cBc2 G2c2|"F"AGF2"C"G4|"C"cBc2g2c2|e2g6|!
"C"e2c2e2c2|"Dm"dcAG "F"F4|"F"FGAc "G"d2 g2|"C"e2c6:|]
